X:1
T:Paradise (Dykes), 86.86.66.66
T:John Bacchus Dykes, 1868
T:Paradise (Dykes), 86.86.66.66
T:Public Domain
C:John Bacchus Dykes, 1868
Z:Public Domain
%%score ( 1 2 ) ( 3 4 )
L:1/8
M:none
K:E
V:1 treble 
V:2 treble 
V:3 bass 
V:4 bass 
V:1
 [EG]2 | [DF]3 [B,E] [DF]2 [EG]2 | [DF]3 E E2 [B,E]2 | [CF]2 E2 [EA]2 G2 | [Ac]6 [FB]2 | %5
 [Ee]3 [Ed] [Ec]2 [EB]2 | [FA]2 (GA) [FB]2 (CD) | [EG]2 [EG]2 [EG]2 ([GB][FA]) | %8
 (E2 C2 [DF]2) [DB]2 | [DB]3 [DB] [DB]2 ([Ec][Fd]) | [Ee]6 (dc) | [DB]3 [DB] [Ac]2 ([GB][FA]) | %12
 (F4 E2) [FB]2 | [EB]2 (ED) [Ee]2 [Ge]2 | (A2 E4) (DC) | (B,3 A,) (B,2 C2) | (F3 E) F2 [DG]2 | %17
 [DF]4 E2 |] %18
V:2
 x2 | x8 | x3 E E2 x2 | x6 G2 | x8 | x8 | x2 F2 x c2 x | x8 | G4 x4 | x8 | x6 E2 | x8 | G6 x2 | %13
 x2 B2 x4 | e6 E2 | E4 G4 | D6 F2 | x4 E2 |] %18
V:3
 [E,B,]2 | [F,A,]3 G, [F,A,]2 [E,B,]2 | [B,,A,]3 [E,G,] [E,G,]2 [E,G,]2 | A,2 [G,B,]2 C2 [B,=D]2 | %4
 [A,E]6 [A,D]2 | [G,B,]3 [G,B,] A,2 [G,B,]2 | [F,C]2 [E,C]2 [D,B,]2 [B,,B,]2 | %7
 [E,B,]2 E,-[^B,,E,] [C,E,]2 [A,,C]2 | (B,2 ^A,2 B,,2) (F,G,) | %9
 [B,,A,]3 [B,,A,] [B,,A,]2 [B,,A,]2 | ([G,-B,]2 [E,G,-][F,G,-A,] [G,B,]2) [B,,G,B,]2 | %11
 [B,,A,]3 [B,,B,] [B,,B,]2 [B,,B,D]2 | [^B,,^B,D]4 [C,C]2 (=B,A,) | %13
 G,2 G,[F,A,] [G,B,][A,C] [B,=D]2 | [A,C]6 (B,A,) | ([B,,G,]3 [C,E,]) (B,,2 A,,2) | %16
 (A,3 G,) A,2 [B,,B,]2 | [B,,A,]4 [E,G,]2 |] %18
V:4
 x2 | x8 | x8 | A,2 x6 | x8 | x4 A,2 x2 | x8 | x8 | B,,4- B,2 B,,2 | x8 | B,,6 x2 | x8 | x6 D,2 | %13
 E,2- E,-E,- E,4 | x6 A,,2 | x4 E,4 | B,,6 A,2 | x6 |] %18

